X: 137
T:New Policeman
M:C
L:1/8
Q:224
B:90 Irish Tunes
K:D
FE |: DA, ~A,2 DEFA | defe dBBA | ~B2 AF ABde | (3efe ed fe ~e2 | 
dA ~A2 DEFA | dgfe dBBA | B2 AF ABdB |1 AFGE FGEF|2 AFEG FD D2|
|| faaf afdf | gfed  Bdef |g2 gf gbag | faaf eafe | 
 dB ~B2 AF ~F2 | DF ~F2 ABdf | afef dBAF | A2 ag fd d2 :|
